icon-themes/breeze_svg/cmd/sc_graphicdialog.svg

<svg viewBox="0 0 16 16" xmlns="http://www.w3.org/2000/svg"><path d="m2 2v11.28125.71875h12v-1-1-1-1-8zm1 1h10v6l-2-2-3.34375 3.34375-1.34375-1.34375h-.03125l-3.28125 3.28125zm3 1c-1.1045695 0-2 .8954305-2 2s.8954305 2 2 2 2-.8954305 2-2-.8954305-2-2-2z" fill="#4d4d4d"/><path d="m7 12c-.55228 0-1 .44772-1 1s.44772 1 1 1 1-.44772 1-1-.44772-1-1-1zm3 0c-.55228 0-1 .44772-1 1s.44772 1 1 1 1-.44772 1-1-.44772-1-1-1zm3 0c-.55228 0-1 .44772-1 1s.44772 1 1 1 1-.44772 1-1-.44772-1-1-1z" fill="#f47750"/></svg>

<svg xmlns="http://www.w3.org/2000/svg" viewBox="0 0 16 16">
 <path 
     style="fill:#4d4d4d" 
     d="M 2 2 L 2 13.28125 L 2 14 L 14 14 L 14 13 L 14 12 L 14 11 L 14 10 L 14 2 L 2 2 z M 3 3 L 13 3 L 13 9 L 11 7 L 7.65625 10.34375 L 6.3125 9 L 6.28125 9 L 3 12.28125 L 3 3 z M 6 4 C 4.8954305 4 4 4.8954305 4 6 C 4 7.1045695 4.8954305 8 6 8 C 7.1045695 8 8 7.1045695 8 6 C 8 4.8954305 7.1045695 4 6 4 z "
     />
 <path 
     style="fill:#f47750" 
     d="M 7 12 C 6.44772 12 6 12.44772 6 13 C 6 13.55228 6.44772 14 7 14 C 7.55228 14 8 13.55228 8 13 C 8 12.44772 7.55228 12 7 12 z M 10 12 C 9.44772 12 9 12.44772 9 13 C 9 13.55228 9.44772 14 10 14 C 10.55228 14 11 13.55228 11 13 C 11 12.44772 10.55228 12 10 12 z M 13 12 C 12.44772 12 12 12.44772 12 13 C 12 13.55228 12.44772 14 13 14 C 13.55228 14 14 13.55228 14 13 C 14 12.44772 13.55228 12 13 12 z "
     />
 </svg>
